Origami/48x48/apps/tipp10.svg

<svg width="48" height="48" version="1" xmlns="http://www.w3.org/2000/svg">
 <rect x="4" y="5" width="40" height="40" rx="2" ry="2" style="opacity:.2"/>
 <rect x="4" y="4" width="40" height="40" rx="2" ry="2" style="fill:#cccccc"/>
 <path d="m6 4c-1.108 0-2 0.892-2 2v1c0-1.108 0.892-2 2-2h36c1.108 0 2 0.892 2 2v-1c0-1.108-0.892-2-2-2h-36z" style="fill:#ffffff;opacity:.2"/>
 <rect x="22" y="22" width="4" height="4" ry=".962" style="fill:#d07517"/>
 <rect x="22" y="16" width="4" height="4" ry=".962" style="fill:#d07517"/>
 <rect x="22" y="28" width="4" height="4" ry=".962" style="fill:#d07517"/>
 <rect x="22" y="34" width="4" height="4" ry=".962" style="fill:#d07517"/>
 <rect x="22" y="10" width="4" height="4" ry=".962" style="fill:#d07517"/>
 <rect x="16" y="10" width="4" height="4" ry=".962" style="fill:#d07517"/>
 <rect x="10" y="10" width="4" height="4" ry=".962" style="fill:#d07517"/>
 <rect x="34" y="10" width="4" height="4" ry=".962" style="fill:#d07517"/>
 <rect x="28" y="10" width="4" height="4" ry=".962" style="fill:#d07517"/>
</svg>

<svg xmlns="http://www.w3.org/2000/svg" width="48" height="48" version="1">
 <rect style="opacity:0.2" width="40" height="40" x="4" y="5" rx="2" ry="2"/>
 <rect style="fill:#cccccc" width="40" height="40" x="4" y="4" rx="2" ry="2"/>
 <path style="opacity:0.2;fill:#ffffff" d="M 6 4 C 4.892 4 4 4.892 4 6 L 4 7 C 4 5.892 4.892 5 6 5 L 42 5 C 43.108 5 44 5.892 44 7 L 44 6 C 44 4.892 43.108 4 42 4 L 6 4 z"/>
 <rect style="fill:#d07517" width="4" height="4" x="22" y="22" ry=".962"/>
 <rect style="fill:#d07517" width="4" height="4" x="22" y="16" ry=".962"/>
 <rect style="fill:#d07517" width="4" height="4" x="22" y="28" ry=".962"/>
 <rect style="fill:#d07517" width="4" height="4" x="22" y="34" ry=".962"/>
 <rect style="fill:#d07517" width="4" height="4" x="22" y="10" ry=".962"/>
 <rect style="fill:#d07517" width="4" height="4" x="16" y="10" ry=".962"/>
 <rect style="fill:#d07517" width="4" height="4" x="10" y="10" ry=".962"/>
 <rect style="fill:#d07517" width="4" height="4" x="34" y="10" ry=".962"/>
 <rect style="fill:#d07517" width="4" height="4" x="28" y="10" ry=".962"/>
</svg>
